packages/nodes-base/nodes/LoneScale/lonescale-logo.svg

<svg width="42" height="43" viewBox="0 0 42 43" fill="none" xmlns="http://www.w3.org/2000/svg">
<path d="M13.1687 29.3144C12.153 28.2424 11.1101 27.7009 10.068 27.7009C9.78401 27.7016 9.50136 27.7404 9.22768 27.8163C7.4752 28.2933 6.0743 30.2611 5.02863 32.4115C4.80241 32.8757 4.59164 33.3527 4.39995 33.8224C3.73863 35.4596 3.20111 37.1441 2.79192 38.8618C2.7687 38.9595 2.76794 39.0611 2.78969 39.1592C2.81144 39.2572 2.85513 39.349 2.91748 39.4277C2.97983 39.5064 3.05922 39.5699 3.14966 39.6135C3.24011 39.6571 3.33927 39.6797 3.43967 39.6794C3.48536 39.6788 3.53093 39.6745 3.57595 39.6667C5.33952 39.291 7.0691 38.7705 8.74709 38.1104C9.22496 37.916 9.70464 37.7053 10.1761 37.4745C12.1576 36.507 13.9437 35.2033 14.4824 33.5344C14.9248 32.1562 14.4833 30.7353 13.1687 29.3144ZM13.2141 33.1301C12.7599 34.551 10.8303 35.7266 8.91334 36.5724C8.43638 36.7822 7.96124 36.9721 7.50881 37.1429C6.29416 37.5899 5.24485 37.886 4.80786 38.0032L4.35362 38.1259L4.48444 37.6716C4.6089 37.2374 4.9187 36.2181 5.37476 35.0325C5.54556 34.5873 5.73816 34.1158 5.9453 33.6407C6.85379 31.5956 8.12568 29.497 9.57927 29.0982C9.73266 29.0546 9.89131 29.0323 10.0508 29.0319C10.7231 29.0319 11.4426 29.4316 12.1948 30.2238C13.643 31.7882 13.3204 32.7967 13.2141 33.1274V33.1301Z" fill="#4157FF"/>
<path d="M29.9586 9.6875C29.3957 9.6875 28.8454 9.85443 28.3773 10.1672C27.9092 10.4799 27.5444 10.9245 27.329 11.4446C27.1135 11.9647 27.0572 12.537 27.167 13.0891C27.2768 13.6412 27.5479 14.1484 27.946 14.5465C28.344 14.9445 28.8512 15.2156 29.4033 15.3254C29.9555 15.4353 30.5278 15.3789 31.0479 15.1635C31.5679 14.948 32.0125 14.5832 32.3252 14.1151C32.638 13.6471 32.8049 13.0968 32.8049 12.5338C32.8042 11.7791 32.5041 11.0556 31.9705 10.522C31.4368 9.98833 30.7133 9.68822 29.9586 9.6875ZM29.9586 14.1055C29.6475 14.1055 29.3435 14.0132 29.0848 13.8404C28.8262 13.6676 28.6246 13.4219 28.5056 13.1345C28.3866 12.8471 28.3555 12.5308 28.4163 12.2258C28.4771 11.9207 28.6269 11.6405 28.8469 11.4206C29.067 11.2007 29.3473 11.051 29.6524 10.9904C29.9575 10.9298 30.2737 10.9611 30.5611 11.0803C30.8484 11.1994 31.0939 11.4011 31.2666 11.6599C31.4393 11.9186 31.5314 12.2227 31.5312 12.5338C31.5305 12.9506 31.3645 13.3501 31.0698 13.6447C30.775 13.9393 30.3754 14.105 29.9586 14.1055Z" fill="#4157FF"/>
<path d="M31.3685 22.5821L31.373 22.4913L31.4375 22.4241C34.4083 19.2816 36.4088 16.4734 37.737 14.0378C38.009 13.5387 38.2537 13.0563 38.4711 12.5905C41.1257 6.91789 40.0355 3.55919 39.8338 3.03681C39.7905 2.92221 39.7149 2.82258 39.6163 2.74989C39.5177 2.6772 39.4001 2.63456 39.2778 2.62708C38.9308 2.60709 38.5792 2.59619 38.2321 2.59619C35.6938 2.59619 33.0692 3.15128 30.4128 4.23148C29.9125 4.43498 29.4107 4.65726 28.9074 4.89831C25.9411 6.32101 22.9522 8.39056 20.015 11.0761C19.767 11.305 19.5226 11.5303 19.2883 11.7593L19.2256 11.8174L19.1411 11.8256C10.2914 12.8476 6.79557 16.9667 6.6493 17.1384C6.57823 17.225 6.53103 17.3286 6.51238 17.4391C6.49374 17.5495 6.50429 17.6629 6.54301 17.768C6.58171 17.8729 6.64763 17.9657 6.734 18.0367C6.82037 18.1078 6.92408 18.1546 7.0345 18.1723L12.7707 19.128L12.5309 19.4624C12.2456 19.8576 12.0857 20.0983 12.0594 20.1374C11.9778 20.2599 11.9413 20.4069 11.9561 20.5534C11.9708 20.6999 12.0359 20.8367 12.1402 20.9405L15.3681 24.1684C15.4902 24.2903 15.6521 24.364 15.8242 24.3761C15.9963 24.3881 16.167 24.3376 16.3048 24.2338L16.8326 23.8349L13.4158 20.419L13.5429 20.2437C15.0801 18.1223 21.7385 9.43714 30.3392 5.64964C30.8207 5.43705 31.3103 5.23809 31.8037 5.05912C33.8578 4.31233 36.0063 3.86626 38.2113 3.86626L38.5447 3.87172H38.7536L38.7927 4.07794C38.9871 5.18176 39.1152 7.60744 37.678 11.1324C37.4917 11.593 37.2782 12.0727 37.0338 12.5696C35.4467 15.8057 32.5822 19.8194 27.5356 24.4709C27.5356 24.4709 25.1953 22.0379 24.1251 20.9187C23.9846 20.7705 23.7913 20.6837 23.5873 20.677C23.3832 20.6704 23.1847 20.7445 23.0349 20.8832C22.2781 21.581 21.147 22.6276 21.147 22.6276C21.1254 22.6481 21.1054 22.6703 21.0871 22.6939V22.6893C21.0644 22.712 20.5992 23.2181 20.5538 23.4725C20.5542 23.4752 20.5542 23.4779 20.5538 23.4806C20.5343 23.6045 20.5436 23.7312 20.5809 23.851C20.6183 23.9707 20.6827 24.0802 20.7691 24.1711C21.0353 24.4645 23.1466 26.6749 23.9752 27.5125L23.9952 27.5334C23.4737 27.9604 22.0483 29.0779 22.0483 29.0779C21.4932 28.5246 18.1708 25.0505 18.1672 25.026C18.1445 25.0496 17.6802 25.5547 17.6339 25.8091V25.8164C17.6149 25.9406 17.6246 26.0675 17.662 26.1875C17.6995 26.3074 17.7638 26.4173 17.8501 26.5086C18.1163 26.8012 20.2276 29.0115 21.0553 29.8483L21.564 30.357C21.6223 30.417 21.6921 30.4646 21.7692 30.4969C21.8463 30.5293 21.9292 30.5456 22.0128 30.5451C22.1517 30.5449 22.2866 30.4993 22.3971 30.4152L22.9286 30.0063L23.3828 29.6538L24.3286 35.4618C24.348 35.5821 24.4016 35.6942 24.4829 35.7849C24.5643 35.8755 24.6699 35.9409 24.7874 35.9733C24.8416 35.9893 24.898 35.9972 24.9545 35.9969C25.1464 35.9866 25.3264 35.9007 25.4551 35.758C30.7543 30.4124 31.3685 22.6584 31.3685 22.5821ZM8.49081 17.1257L8.96868 16.7669C10.4059 15.6985 12.9542 14.2558 16.9334 13.459L17.7175 13.3001L17.166 13.8815C15.9604 15.1606 14.8039 16.498 13.7346 17.8643L13.6438 17.9833L8.49081 17.1257ZM24.5266 28.7453L25.248 28.1503C25.3264 28.0858 25.3907 28.0057 25.4366 27.9151C25.4826 27.8245 25.5092 27.7254 25.515 27.624C25.5207 27.5226 25.5053 27.4211 25.4698 27.3259C25.4344 27.2307 25.3795 27.1439 25.3088 27.071C24.265 25.9926 22.0964 23.7505 21.9474 23.5969C22.0719 23.4779 22.2263 23.3316 22.4089 23.1599C22.7096 22.8774 23.0867 22.524 23.5318 22.1261C23.7989 22.4177 27.462 26.2334 27.4738 26.2206L29.5451 24.3301L29.4725 25.0178C29.139 28.0985 26.9732 31.5408 25.7149 33.3196L25.3515 33.8265L24.5266 28.7453Z" fill="#090F47"/>
<path d="M19.1122 32.4668L10.0845 23.4391C10.0124 23.3673 9.96826 23.2722 9.95993 23.1708C9.95161 23.0694 9.97968 22.9684 10.0391 22.8858L10.3843 22.4052C10.4206 22.3546 10.4675 22.3125 10.5217 22.2819C10.576 22.2512 10.6362 22.2327 10.6983 22.2277C10.7604 22.2227 10.8228 22.2313 10.8812 22.2528C10.9397 22.2744 10.9927 22.3084 11.0366 22.3525L20.1852 31.5029C20.2283 31.5461 20.2618 31.598 20.2833 31.6552C20.3048 31.7123 20.3139 31.7734 20.31 31.8344C20.306 31.8953 20.2891 31.9548 20.2604 32.0087C20.2317 32.0626 20.1918 32.1097 20.1434 32.147L19.6764 32.5022C19.5941 32.5657 19.4914 32.5971 19.3877 32.5906C19.2839 32.5841 19.186 32.5401 19.1122 32.4668Z" fill="#4157FF"/>
<path d="M38.9937 14.4603C39.8962 16.7381 40.3586 19.1664 40.3564 21.6165C40.3564 32.3576 31.6185 41.0955 20.8747 41.0955C17.5369 41.0998 14.2547 40.2404 11.3473 38.6008C11.1444 38.7068 10.94 38.8103 10.7341 38.9115C10.437 39.0559 10.1372 39.194 9.8374 39.3276C13.1451 41.4011 16.9708 42.4991 20.8747 42.4955C32.3871 42.4955 41.7546 33.1307 41.7546 21.6183C41.7579 18.5704 41.0888 15.5593 39.795 12.7996C39.564 13.3698 39.2963 13.9246 38.9937 14.4603Z" fill="#090F47"/>
<path d="M29.9621 2.82513C27.1317 1.44813 24.0249 0.733566 20.8772 0.7356C9.3666 0.7356 3.5185e-05 10.0994 3.5185e-05 21.6128C-0.0072466 25.5659 1.11588 29.4387 3.237 32.7745C3.36418 32.4911 3.49561 32.21 3.63128 31.9314C3.73848 31.7085 3.84902 31.4884 3.96288 31.271C2.2768 28.333 1.3915 25.0038 1.39548 21.6164C1.39548 10.8798 10.1334 2.1374 20.8745 2.1374C23.3446 2.13455 25.7924 2.6042 28.0861 3.52104C28.6684 3.28756 29.2998 3.05044 29.9621 2.82513Z" fill="#4157FF"/>
</svg>

<svg xmlns="http://www.w3.org/2000/svg" width="42" height="43" fill="none"><path fill="#4157FF" d="M13.169 29.314c-1.016-1.072-2.059-1.613-3.101-1.613-.284 0-.567.04-.84.115-1.753.477-3.154 2.445-4.2 4.595a24 24 0 0 0-.628 1.411 35 35 0 0 0-1.608 5.04.664.664 0 0 0 .784.805 33 33 0 0 0 5.171-1.557c.478-.194.958-.405 1.43-.636 1.98-.967 3.767-2.27 4.305-3.94.443-1.378.001-2.799-1.313-4.22m.045 3.816c-.454 1.421-2.384 2.597-4.3 3.442-.478.21-.953.4-1.405.57a33 33 0 0 1-2.701.861l-.454.123.13-.454a33 33 0 0 1 1.461-4.031c.909-2.045 2.18-4.144 3.634-4.543a1.7 1.7 0 0 1 .472-.066c.672 0 1.392.4 2.144 1.192 1.448 1.564 1.125 2.573 1.02 2.903zM29.959 9.688a2.846 2.846 0 1 0 0 5.692 2.846 2.846 0 0 0 0-5.693m0 4.417a1.573 1.573 0 1 1 0-3.146 1.573 1.573 0 0 1 0 3.146"/><path fill="#090F47" d="m31.369 22.582.004-.09.064-.068c2.971-3.142 4.972-5.95 6.3-8.386q.408-.75.734-1.447c2.655-5.673 1.565-9.032 1.363-9.554a.64.64 0 0 0-.556-.41c-.347-.02-.699-.03-1.046-.03-2.538 0-5.163.554-7.82 1.634q-.75.306-1.505.667c-2.966 1.423-5.955 3.493-8.892 6.178q-.373.341-.727.683l-.062.058-.085.009c-8.85 1.022-12.345 5.14-12.492 5.312a.64.64 0 0 0 .085.899.63.63 0 0 0 .3.135l5.737.956-.24.334c-.285.396-.445.636-.472.675a.635.635 0 0 0 .081.803l3.228 3.228a.72.72 0 0 0 .937.066l.528-.4-3.417-3.415.127-.175C15.08 18.122 21.739 9.437 30.339 5.65q.723-.321 1.465-.59c2.054-.748 4.202-1.194 6.407-1.194l.334.006h.209l.039.206c.194 1.104.322 3.53-1.115 7.054q-.278.691-.644 1.438c-1.587 3.236-4.452 7.25-9.498 11.9 0 0-2.34-2.432-3.41-3.551a.776.776 0 0 0-1.091-.036c-.757.698-1.888 1.745-1.888 1.745l-.06.066v-.005c-.023.023-.488.53-.533.784v.008a.82.82 0 0 0 .215.69c.266.294 2.378 2.504 3.206 3.342l.02.02c-.521.427-1.947 1.545-1.947 1.545-.555-.553-3.877-4.027-3.88-4.052-.023.024-.488.529-.534.783v.007a.83.83 0 0 0 .216.693c.266.292 2.378 2.503 3.205 3.34l.509.508a.62.62 0 0 0 .449.188.64.64 0 0 0 .384-.13l.532-.409.454-.352.946 5.808a.636.636 0 0 0 .625.535.73.73 0 0 0 .501-.239c5.3-5.346 5.914-13.1 5.914-13.176M8.49 17.126l.478-.36c1.437-1.067 3.985-2.51 7.964-3.307l.785-.159-.552.582a58 58 0 0 0-3.431 3.982l-.091.12zm16.036 11.62.721-.596a.735.735 0 0 0 .06-1.079l-3.36-3.474a79 79 0 0 1 1.584-1.47c.267.29 3.93 4.106 3.942 4.094l2.071-1.89-.073.687c-.333 3.08-2.499 6.523-3.757 8.302l-.363.507z"/><path fill="#4157FF" d="m19.112 32.467-9.027-9.028a.43.43 0 0 1-.046-.553l.345-.48a.428.428 0 0 1 .653-.053l9.148 9.15a.43.43 0 0 1-.042.644l-.467.355a.43.43 0 0 1-.564-.035"/><path fill="#090F47" d="M38.994 14.46a19.4 19.4 0 0 1 1.362 7.156c0 10.742-8.737 19.48-19.481 19.48a19.35 19.35 0 0 1-9.528-2.495q-.304.16-.613.31-.446.217-.897.417a20.74 20.74 0 0 0 11.038 3.167c11.512 0 20.88-9.364 20.88-20.877a20.7 20.7 0 0 0-1.96-8.818q-.347.856-.801 1.66"/><path fill="#4157FF" d="M29.962 2.825a20.7 20.7 0 0 0-9.085-2.09C9.367.736 0 10.1 0 21.614a20.73 20.73 0 0 0 3.237 11.162 30 30 0 0 1 .726-1.504 19.35 19.35 0 0 1-2.568-9.655c0-10.736 8.738-19.479 19.48-19.479a19.4 19.4 0 0 1 7.211 1.384 38 38 0 0 1 1.876-.696"/></svg>
